X: 7545
T: Cock O' The North
R: jig
M: 6/8
K: Dmajor
M:12/8
|:d2 A B2 A d2 A B2 A|F2 F FED E2 E EFA|
d2 A B2 A d2 A B2 A|F2 F EFE DFE D3:|
|:F2 F FED F2 A B2 A|F2 F FED E2 E EDE|
F2 F FED F2 A B2 A|F2 F EFE DFE D3:|

